CN4T1/180/aimg/platano.svg

<svg clip-rule="evenodd" fill-rule="evenodd" stroke-linejoin="round" stroke-miterlimit="2" viewBox="0 0 34 32" xmlns="http://www.w3.org/2000/svg"><g fill-rule="nonzero"><path d="m0 3.97c-.239 0-.339-.03-.402.005-.207.117-.43.228-.594.393-1.493 1.505-3.346 2.263-5.375 2.744-3.006.714-6 1.425-9.125.888-.197-.034-.412.032-.754.065 1.143 1.34 2.521 1.854 4.023 2.214 2.733.656 2.758.684 5.233-.69.416-.23.83-.466 1.239-.709 2.17-1.289 3.946-3.029 5.755-4.91m4.775-6.701c-.722 1.607-1.205 3.136-2.035 4.445-2.538 4-5.804 7.244-10.211 9.208-.758.338-1.451.821-2.294 1.306 7.566.968 15.701-6.754 14.54-14.959m-.969-2.265c-.104-.027-.208-.054-.312-.081-.675.641-1.353 1.279-2.024 1.924-3.107 2.988-6.283 5.829-10.726 6.729-2.49.505-4.95.977-7.5.508-.649-.119-1.333-.114-1.995-.077-.939.051-1.265.417-1.549 1.689.807.042 1.59.07 2.37.13.262.021.569.054.768.2 1.221.897 2.628 1.1 4.069 1.075 1.091-.018 2.182-.17 3.269-.297 3.178-.372 6.097-1.375 8.617-3.435.833-.681 1.81-1.187 2.699-1.804.219-.151.411-.398.518-.644.497-1.133 1.033-2.258 1.41-3.431.254-.789.266-1.655.386-2.486m-20.304 19.924c.371.769 1.006.754 1.614.78.666.028 1.335.003 1.998.061 1.876.165 3.675.765 5.614.721 1.343-.03 2.65-.137 3.941-.407 1.865-.389 3.62-1.059 5.333-1.955 1.522-.796 2.849-1.74 3.817-3.107 2.79-3.94 4.565-8.232 4.042-13.181-.257-2.445-1.284-4.566-3.213-6.159-.403-.332-.624-.627-.649-1.168-.032-.656-.165-1.32-.351-1.952-.182-.621-.852-.946-1.327-.746-.61.257-.934.86-.689 1.486.403 1.028.278 2.27 1.225 3.08.915 2.593 1.233 5.25.994 7.996-.185 2.123-1.236 3.887-2.184 5.693-1.598 3.043-4.193 5.031-7.265 6.375-2.44 1.068-5.119.971-7.718 1.253-1.504.163-2.992.496-4.48.787-.243.047-.449.277-.702.443m4.906-3.337c-.442-.126-.881-.343-1.327-.36-1.384-.054-2.401-.815-3.399-1.632-.479-.393-.963-.785-1.4-1.223-.838-.84-1.741-1.312-3.014-1.282-1.315.031-1.825-1.176-1.116-2.325.249-.403.534-.789.838-1.154.59-.709 1.299-1.035 2.271-.84 1.206.242 2.434.473 3.659.508 1.274.036 2.564-.105 3.83-.287.985-.142 1.938-.488 2.915-.704 2.558-.565 4.609-2.055 6.509-3.721 1.531-1.342 2.95-2.832 4.28-4.376 1.173-1.36.942-2.919.085-4.383-.794-1.354-.818-1.496.053-2.32 1.119-1.06 2.553-1.439 3.322-.672.493.492.818 1.298.915 2.005.124.897.461 1.542 1.021 2.257 2.442 3.121 3.608 6.58 2.924 10.654-.683 4.067-2.438 7.587-4.812 10.851-.488.67-1.191 1.273-1.926 1.658-2.275 1.191-4.536 2.484-7.118 2.9-2.288.368-4.574.772-6.93.35-1.818-.325-3.673-.463-5.517-.613-1.361-.11-2.064-.557-2.164-1.557-.11-1.09.655-2.175 1.764-2.468.32-.085.67-.187.985-.139 1.26.19 2.241-.57 3.352-1.127" fill="#231f20" transform="translate(22.2258 13.711812)"/><path d="m0 25.707c.253-.165.459-.396.701-.443 1.488-.291 2.976-.623 4.481-.787 2.599-.282 5.278-.185 7.718-1.252 3.071-1.344 5.667-3.332 7.265-6.376.948-1.805 1.999-3.57 2.184-5.692.239-2.747-.079-5.404-.995-7.996-.946-.811-.822-2.052-1.225-3.08-.245-.626.08-1.229.69-1.487.475-.2 1.145.126 1.327.746.186.633.318 1.297.35 1.953.026.54.247.835.65 1.168 1.929 1.593 2.955 3.714 3.213 6.159.522 4.949-1.252 9.241-4.042 13.18-.969 1.368-2.295 2.312-3.817 3.108-1.713.896-3.468 1.565-5.333 1.954-1.291.27-2.599.378-3.942.407-1.939.044-3.737-.556-5.613-.72-.663-.058-1.333-.034-1.999-.062-.608-.025-1.243-.011-1.613-.78" fill="#ffd800" transform="translate(5.7282 2.931812)"/><path d="m0-12.041c-.12.831-.132 1.697-.386 2.486-.377 1.174-.913 2.299-1.41 3.431-.107.246-.299.493-.518.645-.89.616-1.866 1.122-2.699 1.804-2.52 2.06-5.44 3.063-8.617 3.435-1.087.127-2.178.278-3.269.297-1.441.024-2.849-.179-4.069-1.076-.199-.146-.506-.179-.768-.199-.781-.061-1.563-.089-2.37-.131.284-1.272.61-1.638 1.548-1.689.663-.036 1.347-.042 1.996.078 2.55.468 5.01-.003 7.5-.508 4.443-.901 7.619-3.742 10.726-6.729.671-.645 1.349-1.283 2.024-1.925z" fill="#fff200" transform="translate(26.032 20.755812)"/><path d="m-6.353-18.359c-6.343 5.334-5.442 16.514.837 20.845-.305-.924-.498-1.747-.837-2.504-1.969-4.405-2.234-9.001-1.452-13.672.256-1.529.917-2.99 1.452-4.669" fill="#fff200" transform="matrix(-.744424 -.667708 -.667708 .744424 10.0136 20.404812)"/><path d="m0-6.963c-1.809 1.881-3.585 3.621-5.755 4.91-.409.243-.823.479-1.239.709-2.475 1.374-2.5 1.346-5.233.69-1.502-.36-2.88-.874-4.023-2.214.342-.033.557-.099.754-.065 3.125.537 6.119-.174 9.125-.888 2.029-.481 3.882-1.239 5.375-2.744.164-.165.387-.276.594-.393.063-.035.163-.005.402-.005" fill="#ffd800" transform="translate(22.2258 24.644812)"/></g></svg>

<?xml version="1.0" encoding="UTF-8" standalone="no"?>
<!DOCTYPE svg PUBLIC "-//W3C//DTD SVG 1.1//EN" "http://www.w3.org/Graphics/SVG/1.1/DTD/svg11.dtd">
<svg width="100%" height="100%" viewBox="0 0 34 32" version="1.1" xmlns="http://www.w3.org/2000/svg" xmlns:xlink="http://www.w3.org/1999/xlink" xml:space="preserve" xmlns:serif="http://www.serif.com/" style="fill-rule:evenodd;clip-rule:evenodd;stroke-linejoin:round;stroke-miterlimit:2;">
    <g transform="matrix(1,0,0,1,-254,-279)">
        <g transform="matrix(1,0,0,1,176.918,-0.242188)">
            <g transform="matrix(1,0,0,1,99.3078,292.954)">
                <path d="M0,3.97C-0.239,3.97 -0.339,3.94 -0.402,3.975C-0.609,4.092 -0.832,4.203 -0.996,4.368C-2.489,5.873 -4.342,6.631 -6.371,7.112C-9.377,7.826 -12.371,8.537 -15.496,8C-15.693,7.966 -15.908,8.032 -16.25,8.065C-15.107,9.405 -13.729,9.919 -12.227,10.279C-9.494,10.935 -9.469,10.963 -6.994,9.589C-6.578,9.359 -6.164,9.123 -5.755,8.88C-3.585,7.591 -1.809,5.851 0,3.97M4.775,-2.731C4.053,-1.124 3.57,0.405 2.74,1.714C0.202,5.714 -3.064,8.958 -7.471,10.922C-8.229,11.26 -8.922,11.743 -9.765,12.228C-2.199,13.196 5.936,5.474 4.775,-2.731M3.806,-4.996C3.702,-5.023 3.598,-5.05 3.494,-5.077C2.819,-4.436 2.141,-3.798 1.47,-3.153C-1.637,-0.165 -4.813,2.676 -9.256,3.576C-11.746,4.081 -14.206,4.553 -16.756,4.084C-17.405,3.965 -18.089,3.97 -18.751,4.007C-19.69,4.058 -20.016,4.424 -20.3,5.696C-19.493,5.738 -18.71,5.766 -17.93,5.826C-17.668,5.847 -17.361,5.88 -17.162,6.026C-15.941,6.923 -14.534,7.126 -13.093,7.101C-12.002,7.083 -10.911,6.931 -9.824,6.804C-6.646,6.432 -3.727,5.429 -1.207,3.369C-0.374,2.688 0.603,2.182 1.492,1.565C1.711,1.414 1.903,1.167 2.01,0.921C2.507,-0.212 3.043,-1.337 3.42,-2.51C3.674,-3.299 3.686,-4.165 3.806,-4.996M-16.498,14.928C-16.127,15.697 -15.492,15.682 -14.884,15.708C-14.218,15.736 -13.549,15.711 -12.886,15.769C-11.01,15.934 -9.211,16.534 -7.272,16.49C-5.929,16.46 -4.622,16.353 -3.331,16.083C-1.466,15.694 0.289,15.024 2.002,14.128C3.524,13.332 4.851,12.388 5.819,11.021C8.609,7.081 10.384,2.789 9.861,-2.16C9.604,-4.605 8.577,-6.726 6.648,-8.319C6.245,-8.651 6.024,-8.946 5.999,-9.487C5.967,-10.143 5.834,-10.807 5.648,-11.439C5.466,-12.06 4.796,-12.385 4.321,-12.185C3.711,-11.928 3.387,-11.325 3.632,-10.699C4.035,-9.671 3.91,-8.429 4.857,-7.619C5.772,-5.026 6.09,-2.369 5.851,0.377C5.666,2.5 4.615,4.264 3.667,6.07C2.069,9.113 -0.526,11.101 -3.598,12.445C-6.038,13.513 -8.717,13.416 -11.316,13.698C-12.82,13.861 -14.308,14.194 -15.796,14.485C-16.039,14.532 -16.245,14.762 -16.498,14.928M-11.592,11.591C-12.034,11.465 -12.473,11.248 -12.919,11.231C-14.303,11.177 -15.32,10.416 -16.318,9.599C-16.797,9.206 -17.281,8.814 -17.718,8.376C-18.556,7.536 -19.459,7.064 -20.732,7.094C-22.047,7.125 -22.557,5.918 -21.848,4.769C-21.599,4.366 -21.314,3.98 -21.01,3.615C-20.42,2.906 -19.711,2.58 -18.739,2.775C-17.533,3.017 -16.305,3.248 -15.08,3.283C-13.806,3.319 -12.516,3.178 -11.25,2.996C-10.265,2.854 -9.312,2.508 -8.335,2.292C-5.777,1.727 -3.726,0.237 -1.826,-1.429C-0.295,-2.771 1.124,-4.261 2.454,-5.805C3.627,-7.165 3.396,-8.724 2.539,-10.188C1.745,-11.542 1.721,-11.684 2.592,-12.508C3.711,-13.568 5.145,-13.947 5.914,-13.18C6.407,-12.688 6.732,-11.882 6.829,-11.175C6.953,-10.278 7.29,-9.633 7.85,-8.918C10.292,-5.797 11.458,-2.338 10.774,1.736C10.091,5.803 8.336,9.323 5.962,12.587C5.474,13.257 4.771,13.86 4.036,14.245C1.761,15.436 -0.5,16.729 -3.082,17.145C-5.37,17.513 -7.656,17.917 -10.012,17.495C-11.83,17.17 -13.685,17.032 -15.529,16.882C-16.89,16.772 -17.593,16.325 -17.693,15.325C-17.803,14.235 -17.038,13.15 -15.929,12.857C-15.609,12.772 -15.259,12.67 -14.944,12.718C-13.684,12.908 -12.703,12.148 -11.592,11.591" style="fill:rgb(35,31,32);fill-rule:nonzero;"/>
            </g>
            <g transform="matrix(1,0,0,1,82.8102,282.174)">
                <path d="M0,25.707C0.253,25.542 0.459,25.311 0.701,25.264C2.189,24.973 3.677,24.641 5.182,24.477C7.781,24.195 10.46,24.292 12.9,23.225C15.971,21.881 18.567,19.893 20.165,16.849C21.113,15.044 22.164,13.279 22.349,11.157C22.588,8.41 22.27,5.753 21.354,3.161C20.408,2.35 20.532,1.109 20.129,0.081C19.884,-0.545 20.209,-1.148 20.819,-1.406C21.294,-1.606 21.964,-1.28 22.146,-0.66C22.332,-0.027 22.464,0.637 22.496,1.293C22.522,1.833 22.743,2.128 23.146,2.461C25.075,4.054 26.101,6.175 26.359,8.62C26.881,13.569 25.107,17.861 22.317,21.8C21.348,23.168 20.022,24.112 18.5,24.908C16.787,25.804 15.032,26.473 13.167,26.862C11.876,27.132 10.568,27.24 9.225,27.269C7.286,27.313 5.488,26.713 3.612,26.549C2.949,26.491 2.279,26.515 1.613,26.487C1.005,26.462 0.37,26.476 0,25.707" style="fill:rgb(255,216,0);fill-rule:nonzero;"/>
            </g>
            <g transform="matrix(1,0,0,1,103.114,299.998)">
                <path d="M0,-12.041C-0.12,-11.21 -0.132,-10.344 -0.386,-9.555C-0.763,-8.381 -1.299,-7.256 -1.796,-6.124C-1.903,-5.878 -2.095,-5.631 -2.314,-5.479C-3.204,-4.863 -4.18,-4.357 -5.013,-3.675C-7.533,-1.615 -10.453,-0.612 -13.63,-0.24C-14.717,-0.113 -15.808,0.038 -16.899,0.057C-18.34,0.081 -19.748,-0.122 -20.968,-1.019C-21.167,-1.165 -21.474,-1.198 -21.736,-1.218C-22.517,-1.279 -23.299,-1.307 -24.106,-1.349C-23.822,-2.621 -23.496,-2.987 -22.558,-3.038C-21.895,-3.074 -21.211,-3.08 -20.562,-2.96C-18.012,-2.492 -15.552,-2.963 -13.062,-3.468C-8.619,-4.369 -5.443,-7.21 -2.336,-10.197C-1.665,-10.842 -0.987,-11.48 -0.312,-12.122C-0.208,-12.095 -0.104,-12.068 0,-12.041" style="fill:rgb(255,242,0);fill-rule:nonzero;"/>
            </g>
            <g transform="matrix(-0.744424,-0.667708,-0.667708,0.744424,87.0956,299.647)">
                <path d="M-6.353,-18.359C-12.696,-13.025 -11.795,-1.845 -5.516,2.486C-5.821,1.562 -6.014,0.739 -6.353,-0.018C-8.322,-4.423 -8.587,-9.019 -7.805,-13.69C-7.549,-15.219 -6.888,-16.68 -6.353,-18.359" style="fill:rgb(255,242,0);fill-rule:nonzero;"/>
            </g>
            <g transform="matrix(1,0,0,1,99.3078,303.887)">
                <path d="M0,-6.963C-1.809,-5.082 -3.585,-3.342 -5.755,-2.053C-6.164,-1.81 -6.578,-1.574 -6.994,-1.344C-9.469,0.03 -9.494,0.002 -12.227,-0.654C-13.729,-1.014 -15.107,-1.528 -16.25,-2.868C-15.908,-2.901 -15.693,-2.967 -15.496,-2.933C-12.371,-2.396 -9.377,-3.107 -6.371,-3.821C-4.342,-4.302 -2.489,-5.06 -0.996,-6.565C-0.832,-6.73 -0.609,-6.841 -0.402,-6.958C-0.339,-6.993 -0.239,-6.963 0,-6.963" style="fill:rgb(255,216,0);fill-rule:nonzero;"/>
            </g>
        </g>
    </g>
</svg>
